unbag/front/static/logo.svg

<?xml version="1.0" encoding="utf-8"?>
<!-- Generator: Adobe Illustrator 18.1.1, SVG Export Plug-In . SVG Version: 6.00 Build 0)  -->
<!DOCTYPE svg PUBLIC "-//W3C//DTD SVG 1.1//EN" "http://www.w3.org/Graphics/SVG/1.1/DTD/svg11.dtd">
<svg version="1.1" id="Layer_1" xmlns="http://www.w3.org/2000/svg" xmlns:xlink="http://www.w3.org/1999/xlink" x="0px" y="0px"
	 viewBox="0 0 1076 440" enable-background="new 0 0 1076 440" xml:space="preserve">
<g>
	<g>
		<g>
			<polygon fill="#231F20" points="199.5,120.2 193.7,120.2 199.5,120.1 199.5,120.1 171.5,120.1 171.5,142.6 199.5,148.6 			"/>
			<path fill="#231F20" d="M199.5,260.1c-7.7,11.9-16.3,21.8-23,28.1c-7.4,6.9-16.5,10.1-27,10.1c-12.6,0-21.4-4.9-26.4-14.7
				c-4.9-9.8-7.4-23.3-7.4-40.7v-93.8l22.6-6.2v-22.5H29.2V143l27.2,6.2v95.4c0,17.1,1.6,31.2,4.7,42.3c3.2,11.2,7.7,20,13.6,26.6
				c5.9,6.6,13.1,11.2,21.6,13.8c8.5,2.6,18.1,3.9,28.8,3.9c16.5,0,30.2-4.6,42-12.6c11-7.4,22.6-18.8,32.3-32.2V260.1z"/>
		</g>
		<g>
			<polygon fill="#231F20" points="199.5,303.2 199.5,330.8 199.5,330.8 199.5,331.1 225.3,331.1 225.3,308.6 			"/>
			<path fill="#231F20" d="M339.3,302.7v-95.6c0-17.1-1.6-31.2-4.7-42.3c-3.2-11.2-7.7-20-13.6-26.6c-5.9-6.6-13.1-11.2-21.6-13.8
				s-18.1-3.9-28.8-3.9c-16.5,0-30.5,4.2-42,12.6c-8.9,6.4-18.9,19.1-29,34.7v24.7c4.9-8.5,10-16.7,14.9-24
				c7.2-10.7,19.5-18.9,32-17.8c12.6,1.2,21.2,7.6,26.1,17.3c4.9,9.8,7.4,23.3,7.4,40.7v94l-22.6,6v22.5h109.2v-22.5L339.3,302.7z"
				/>
		</g>
		<g>
			<path fill="#231F20" d="M530.2,125.2c-15.4,0-28.7,3.8-40,11.5c-11.3,7.7-19.6,18.4-25.1,32.1h-0.8L464.1,23l-90.8,5.2l0.4,24.7
				l31.3,3.3v267.9c3,1.9,7.9,3.9,14.6,5.8c6.7,1.9,14.1,3.6,22,5c8,1.4,16.2,2.5,24.7,3.5c8.5,1,16.2,1.4,23.1,1.4
				c38.4,0,67.6-9.5,87.5-28.4c19.9-19,29.9-47.2,29.9-84.9c0-34-6.7-59.4-20.2-76.2C573.2,133.6,554.4,125.2,530.2,125.2z
				 M532.1,295.3c-7.3,14-18.7,21-34.4,21c-7.1,0-13.5-0.8-19.2-2.5c-5.6-1.6-10.4-3.8-14.2-6.6V198.1c3-11.5,7.7-21.1,14-28.6
				c6.3-7.5,14.7-11.3,25.1-11.3c14.6,0,24.8,6.5,30.7,19.4c5.9,12.9,8.9,30.2,8.9,51.9C543,259.4,539.3,281.3,532.1,295.3z"/>
			<path fill="#231F20" d="M1054.8,126.9l-108.3-2.2l0.1,0.1c-1.2,0-2.3,0-3.5,0c-29.1,0-52.2,5.8-69.2,17.3
				c-17,11.5-25.5,27.6-25.5,48.2c0,17.3,5.1,31.5,15.2,42.6c10.2,11.1,23.9,18.6,41.2,22.4c-4.1,1.7-8.2,3.6-12.4,6
				c-4.1,2.3-8,4.9-11.5,7.8c-3.6,2.9-6.5,6-8.6,9.5c-2.2,3.4-3.3,6.9-3.3,10.5c0,4.1,1,7.8,2.9,10.9c1.9,3.2,4.4,5.9,7.4,8.2
				c3,2.3,6.4,4.3,10.3,6c3.8,1.7,7.8,3,12,4.1c-8.8,2.2-16.8,4.7-24.1,7.4c-7.3,2.7-13.7,6.2-19.2,10.3c-5.5,4.1-9.7,8.9-12.8,14.4
				c-3,5.5-4.5,12.1-4.5,19.8c0,6.9,1.9,13.5,5.6,19.8c3.7,6.3,9.5,11.9,17.5,16.9c8,4.9,18.3,8.9,31.1,11.7
				c12.8,2.9,28.2,4.3,46.3,4.3c15.4,0,29.9-1.6,43.5-4.7c13.6-3.2,25.4-7.7,35.4-13.6c10-5.9,17.9-13.1,23.7-21.6
				c5.8-8.5,8.5-18.3,8.2-29.2c-0.3-11.5-3.8-20.9-10.7-28.2c-6.9-7.3-15.4-13.2-25.5-17.7c-10.2-4.5-21.1-8.2-32.7-10.9
				c-11.7-2.7-22.6-5.2-32.8-7.4c-10.2-2.2-18.5-4.7-25.1-7.4c-6.6-2.7-9.9-6.4-9.9-11.1c0-2.2,0.6-4.5,1.8-6.8
				c1.2-2.3,2.4-4.3,3.5-6c2.7,0.6,6,0.9,9.7,1c3.7,0.1,7.9,0.2,12.6,0.2c15.9,0,29.9-1.8,41.8-5.4c11.9-3.6,21.8-8.4,29.7-14.6
				c7.8-6.2,13.7-13.2,17.5-21.2c3.8-8,5.8-16.5,5.8-25.5c0-8.5-1.7-15.7-3.9-22c-2.1-6-5.1-11.3-8.5-15.8l29.4-3.5V126.9z
				 M920.1,323.3c8.8,2.7,17.6,5.2,26.6,7.2c8.9,2.1,17,4.5,24.1,7.4c7.1,2.9,13,6.6,17.5,11.1c4.5,4.5,6.8,10.5,6.8,17.9
				c0,8.8-3.7,16.4-11.1,22.9s-18.8,9.7-34.2,9.7c-15.6,0-27.8-3.5-36.4-10.5c-8.7-7-13-16.8-13-29.5c0-7.7,1.5-14.3,4.5-19.8
				C907.8,334.3,912.9,328.8,920.1,323.3z M970.9,224.7c-5.1,7.6-14.4,11.3-27.8,11.3c-14,0-23.4-3.7-28.2-11.1
				c-4.8-7.4-7.2-18.3-7.2-32.5c0-15.1,2.5-26.2,7.4-33.4c4.9-7.1,14.3-10.7,28-10.7c13.2,0,22.4,3.6,27.6,10.9
				c5.2,7.3,7.8,18.3,7.8,33.2C978.6,206.3,976,217.1,970.9,224.7z"/>
			<path fill="#231F20" d="M806.9,305h0.1c-0.4-4.5-0.5-8.9-0.6-13c-0.1-4.4-0.2-9.6-0.2-15.7c0-14,0.3-27.7,1-41
				c0.7-13.3,1-28.2,1-44.7c0-9.1-1.1-17.6-3.3-25.5c-2.2-8-6.1-14.9-11.7-20.8c-5.6-5.9-13.4-10.6-23.3-14
				c-9.9-3.4-22.7-5.1-38.3-5.1c-18.4,0-35.8,2.1-52.3,6.2c-16.5,4.1-29.9,9.8-40.4,16.9l23.2,52l22.6-4.5l6.8-44.4
				c33.2-9.6,50.4,2.8,54.5,13.8c4.1,11,5.1,28.3,2.9,51.9c-22.5,1.1-41.7,2.9-57.5,5.4c-15.8,2.5-28.7,6.2-38.7,11.3
				c-10,5.1-17.4,11.6-22,19.6c-4.7,8-7,18.1-7,30.5c0,8.8,1.7,16.7,4.9,23.7c3.3,7,7.8,13,13.6,17.9c5.8,4.9,12.5,8.8,20.2,11.5
				c7.7,2.7,16.1,4.1,25.1,4.1c8.5,0,16.2-1.2,23.1-3.7c6.9-2.5,12.8-5.7,17.9-9.7c5.1-4,9.3-8.5,12.6-13.6c3.3-5.1,5.6-10.4,7-15.9
				h2.1c0,0,0,7.1,1.1,16.7c0.1,1.9,0.2,3.8,0.5,5.6c0.7,5,1.2,9.1,5.5,12.7c4.3,3.6,10.5,5.2,20,5.2c5.3,0,10.8-0.6,16.6-1.7
				c5.8-1.1,11.4-2.5,16.8-4.2c5.4-1.7,10.4-3.7,15-5.9c4.6-2.3,8.2-4.5,11-6.8v-14.4h-29.7L806.9,305z M749,277.6
				c-0.8,2.7-2,5.9-3.5,9.5c-1.5,3.6-3.7,6.9-6.6,9.9c-2.9,3-6.4,5.6-10.5,7.8c-4.1,2.2-9.1,3.3-14.8,3.3c-8.8,0-15.7-2.9-20.6-8.6
				c-4.9-5.8-7.4-13.9-7.4-24.3c0-6.9,0.9-12.7,2.7-17.5c1.8-4.8,5-8.8,9.7-11.9c4.7-3.2,11.1-5.4,19.4-6.8
				c8.2-1.4,18.8-2.2,31.7-2.5V277.6z"/>
		</g>
	</g>
</g>
</svg>

<svg width="1076" height="440" viewBox="0 0 1076 440" fill="none" xmlns="http://www.w3.org/2000/svg">
<path d="M199.5 120.2H193.7L199.5 120.1H171.5V142.6L199.5 148.6V120.2Z" fill="#2593CA"/>
<path d="M199.5 260.1C191.8 272 183.2 281.9 176.5 288.2C169.1 295.1 160 298.3 149.5 298.3C136.9 298.3 128.1 293.4 123.1 283.6C118.2 273.8 115.7 260.3 115.7 242.9V149.1L138.3 142.9V120.4H29.2V143L56.4 149.2V244.6C56.4 261.7 58 275.8 61.1 286.9C64.3 298.1 68.8 306.9 74.7 313.5C80.6 320.1 87.8 324.7 96.3 327.3C104.8 329.9 114.4 331.2 125.1 331.2C141.6 331.2 155.3 326.6 167.1 318.6C178.1 311.2 189.7 299.8 199.4 286.4V260.1H199.5Z" fill="#2593CA"/>
<path d="M199.5 303.2V330.8V331.1H225.3V308.6L199.5 303.2Z" fill="#2593CA"/>
<path d="M339.3 302.7V207.1C339.3 190 337.7 175.9 334.6 164.8C331.4 153.6 326.9 144.8 321 138.2C315.1 131.6 307.9 127 299.4 124.4C290.9 121.8 281.3 120.5 270.6 120.5C254.1 120.5 240.1 124.7 228.6 133.1C219.7 139.5 209.7 152.2 199.6 167.8V192.5C204.5 184 209.6 175.8 214.5 168.5C221.7 157.8 234 149.6 246.5 150.7C259.1 151.9 267.7 158.3 272.6 168C277.5 177.8 280 191.3 280 208.7V302.7L257.4 308.7V331.2H366.6V308.7L339.3 302.7Z" fill="#2593CA"/>
<path d="M530.2 125.2C514.8 125.2 501.5 129 490.2 136.7C478.9 144.4 470.6 155.1 465.1 168.8H464.3L464.1 23L373.3 28.2L373.7 52.9L405 56.2V324.1C408 326 412.9 328 419.6 329.9C426.3 331.8 433.7 333.5 441.6 334.9C449.6 336.3 457.8 337.4 466.3 338.4C474.8 339.4 482.5 339.8 489.4 339.8C527.8 339.8 557 330.3 576.9 311.4C596.8 292.4 606.8 264.2 606.8 226.5C606.8 192.5 600.1 167.1 586.6 150.3C573.2 133.6 554.4 125.2 530.2 125.2ZM532.1 295.3C524.8 309.3 513.4 316.3 497.7 316.3C490.6 316.3 484.2 315.5 478.5 313.8C472.9 312.2 468.1 310 464.3 307.2V198.1C467.3 186.6 472 177 478.3 169.5C484.6 162 493 158.2 503.4 158.2C518 158.2 528.2 164.7 534.1 177.6C540 190.5 543 207.8 543 229.5C543 259.4 539.3 281.3 532.1 295.3Z" fill="#2593CA"/>
<path d="M1054.8 126.9L946.5 124.7L946.6 124.8C945.4 124.8 944.3 124.8 943.1 124.8C914 124.8 890.9 130.6 873.9 142.1C856.9 153.6 848.4 169.7 848.4 190.3C848.4 207.6 853.5 221.8 863.6 232.9C873.8 244 887.5 251.5 904.8 255.3C900.7 257 896.6 258.9 892.4 261.3C888.3 263.6 884.4 266.2 880.9 269.1C877.3 272 874.4 275.1 872.3 278.6C870.1 282 869 285.5 869 289.1C869 293.2 870 296.9 871.9 300C873.8 303.2 876.3 305.9 879.3 308.2C882.3 310.5 885.7 312.5 889.6 314.2C893.4 315.9 897.4 317.2 901.6 318.3C892.8 320.5 884.8 323 877.5 325.7C870.2 328.4 863.8 331.9 858.3 336C852.8 340.1 848.6 344.9 845.5 350.4C842.5 355.9 841 362.5 841 370.2C841 377.1 842.9 383.7 846.6 390C850.3 396.3 856.1 401.9 864.1 406.9C872.1 411.8 882.4 415.8 895.2 418.6C908 421.5 923.4 422.9 941.5 422.9C956.9 422.9 971.4 421.3 985 418.2C998.6 415 1010.4 410.5 1020.4 404.6C1030.4 398.7 1038.3 391.5 1044.1 383C1049.9 374.5 1052.6 364.7 1052.3 353.8C1052 342.3 1048.5 332.9 1041.6 325.6C1034.7 318.3 1026.2 312.4 1016.1 307.9C1005.9 303.4 995 299.7 983.4 297C971.7 294.3 960.8 291.8 950.6 289.6C940.4 287.4 932.1 284.9 925.5 282.2C918.9 279.5 915.6 275.8 915.6 271.1C915.6 268.9 916.2 266.6 917.4 264.3C918.6 262 919.8 260 920.9 258.3C923.6 258.9 926.9 259.2 930.6 259.3C934.3 259.4 938.5 259.5 943.2 259.5C959.1 259.5 973.1 257.7 985 254.1C996.9 250.5 1006.8 245.7 1014.7 239.5C1022.5 233.3 1028.4 226.3 1032.2 218.3C1036 210.3 1038 201.8 1038 192.8C1038 184.3 1036.3 177.1 1034.1 170.8C1032 164.8 1029 159.5 1025.6 155L1055 151.5V126.9H1054.8ZM920.1 323.3C928.9 326 937.7 328.5 946.7 330.5C955.6 332.6 963.7 335 970.8 337.9C977.9 340.8 983.8 344.5 988.3 349C992.8 353.5 995.1 359.5 995.1 366.9C995.1 375.7 991.4 383.3 984 389.8C976.6 396.3 965.2 399.5 949.8 399.5C934.2 399.5 922 396 913.4 389C904.7 382 900.4 372.2 900.4 359.5C900.4 351.8 901.9 345.2 904.9 339.7C907.8 334.3 912.9 328.8 920.1 323.3ZM970.9 224.7C965.8 232.3 956.5 236 943.1 236C929.1 236 919.7 232.3 914.9 224.9C910.1 217.5 907.7 206.6 907.7 192.4C907.7 177.3 910.2 166.2 915.1 159C920 151.9 929.4 148.3 943.1 148.3C956.3 148.3 965.5 151.9 970.7 159.2C975.9 166.5 978.5 177.5 978.5 192.4C978.6 206.3 976 217.1 970.9 224.7Z" fill="#2593CA"/>
<path d="M806.9 305H807C806.6 300.5 806.5 296.1 806.4 292C806.3 287.6 806.2 282.4 806.2 276.3C806.2 262.3 806.5 248.6 807.2 235.3C807.9 222 808.2 207.1 808.2 190.6C808.2 181.5 807.1 173 804.9 165.1C802.7 157.1 798.8 150.2 793.2 144.3C787.6 138.4 779.8 133.7 769.9 130.3C760 126.9 747.2 125.2 731.6 125.2C713.2 125.2 695.8 127.3 679.3 131.4C662.8 135.5 649.4 141.2 638.9 148.3L662.1 200.3L684.7 195.8L691.5 151.4C724.7 141.8 741.9 154.2 746 165.2C750.1 176.2 751.1 193.5 748.9 217.1C726.4 218.2 707.2 220 691.4 222.5C675.6 225 662.7 228.7 652.7 233.8C642.7 238.9 635.3 245.4 630.7 253.4C626 261.4 623.7 271.5 623.7 283.9C623.7 292.7 625.4 300.6 628.6 307.6C631.9 314.6 636.4 320.6 642.2 325.5C648 330.4 654.7 334.3 662.4 337C670.1 339.7 678.5 341.1 687.5 341.1C696 341.1 703.7 339.9 710.6 337.4C717.5 334.9 723.4 331.7 728.5 327.7C733.6 323.7 737.8 319.2 741.1 314.1C744.4 309 746.7 303.7 748.1 298.2H750.2C750.2 298.2 750.2 305.3 751.3 314.9C751.4 316.8 751.5 318.7 751.8 320.5C752.5 325.5 753 329.6 757.3 333.2C761.6 336.8 767.8 338.4 777.3 338.4C782.6 338.4 788.1 337.8 793.9 336.7C799.7 335.6 805.3 334.2 810.7 332.5C816.1 330.8 821.1 328.8 825.7 326.6C830.3 324.3 833.9 322.1 836.7 319.8V305.4H807L806.9 305ZM749 277.6C748.2 280.3 747 283.5 745.5 287.1C744 290.7 741.8 294 738.9 297C736 300 732.5 302.6 728.4 304.8C724.3 307 719.3 308.1 713.6 308.1C704.8 308.1 697.9 305.2 693 299.5C688.1 293.7 685.6 285.6 685.6 275.2C685.6 268.3 686.5 262.5 688.3 257.7C690.1 252.9 693.3 248.9 698 245.8C702.7 242.6 709.1 240.4 717.4 239C725.6 237.6 736.2 236.8 749.1 236.5V277.6H749Z" fill="#2593CA"/>
</svg>
